X: 206
T: Epstein Medley (tune 1)
M: 2/4
L: 1/8
K: G exp =B_e_A
|: "G"z B2 B | "(Fm)"cB cd \
|  "G"z B2 B | "(Fm)"cB AG \
|  "G"z B2 B | "(Fm)"cB cd \
|  "G"B2 "Fm"A/G/A |1 "G"B4 :|2 "G"G4 
|  "G"B2 c2 | dc ed \
| "Cm"c4-   | cc Bc \
|  "G"d2 c2 | B2 "(Fm)"A/G/A \
|  "G"B4-   | BG AG 
|  "G"B2 c2 | dc ed \
| "Cm"c4    | "Fm"f4 \
|  fe dc    | dc BA \
|  "G"G4 -  | G2 z2 |]



